src/assets/svgs/total-value-locked.svg

<svg width="100" height="100" viewBox="0 0 100 100" fill="none" xmlns="http://www.w3.org/2000/svg">
<g filter="url(#filter0_d_1_362)">
<rect x="30" y="25" width="40" height="40" rx="10" fill="#FF4267"/>
</g>
<path d="M50.3672 46.682V47.9787C50.8392 47.8987 51.0752 47.694 51.0752 47.364C51.0752 47.0127 50.6885 46.8293 50.3672 46.682Z" fill="white"/>
<path d="M48.9819 44.2033C48.9819 44.5713 49.3146 44.736 49.6539 44.8853V43.6613C49.2059 43.7273 48.9819 43.908 48.9819 44.2033Z" fill="white"/>
<path d="M53.9999 39L51.9999 37L49.9999 39L47.9999 37L45.9999 39L43.3333 37V52.3333C43.3333 52.702 43.6319 53 43.9999 53H55.9999C56.3679 53 56.6666 52.702 56.6666 52.3333V37L53.9999 39ZM50.3673 49.2187V50.2867H49.6539V49.24C48.8066 49.2227 48.0633 49.0733 47.4246 48.792V47.4173C48.0246 47.714 48.9766 47.974 49.6539 48.016V46.4013C48.4613 45.9387 47.4146 45.49 47.4146 44.2033C47.4146 43.0347 48.4866 42.4853 49.6539 42.37V41.5727H50.3673V42.3487C51.1619 42.3833 51.8813 42.5433 52.5233 42.828L52.0339 44.0467C51.4926 43.8247 50.9366 43.6893 50.3673 43.6407V45.1773C51.6326 45.664 52.6433 46.1073 52.6433 47.2867C52.6433 48.53 51.6106 49.1047 50.3673 49.2187Z" fill="white"/>
<defs>
<filter id="filter0_d_1_362" x="0" y="0" width="100" height="100" filterUnits="userSpaceOnUse" color-interpolation-filters="sRGB">
<feFlood flood-opacity="0" result="BackgroundImageFix"/>
<feColorMatrix in="SourceAlpha" type="matrix" values="0 0 0 0 0 0 0 0 0 0 0 0 0 0 0 0 0 0 127 0" result="hardAlpha"/>
<feOffset dy="5"/>
<feGaussianBlur stdDeviation="15"/>
<feColorMatrix type="matrix" values="0 0 0 0 0 0 0 0 0 0 0 0 0 0 0 0 0 0 0.05 0"/>
<feBlend mode="normal" in2="BackgroundImageFix" result="effect1_dropShadow_1_362"/>
<feBlend mode="normal" in="SourceGraphic" in2="effect1_dropShadow_1_362" result="shape"/>
</filter>
</defs>
</svg>

<svg width="100" height="100" fill="none" xmlns="http://www.w3.org/2000/svg"><g filter="url(#a)"><rect x="30" y="25" width="40" height="40" rx="10" fill="#FF4267"/></g><path d="M50.367 46.682v1.297c.472-.08.708-.285.708-.615 0-.351-.387-.535-.708-.682zM48.982 44.203c0 .368.333.533.672.682v-1.224c-.448.066-.672.247-.672.542z" fill="#fff"/><path d="m54 39-2-2-2 2-2-2-2 2-2.667-2v15.333c0 .369.299.667.667.667h12a.667.667 0 0 0 .667-.667V37L54 39zm-3.633 10.219v1.068h-.713V49.24c-.847-.017-1.59-.167-2.23-.448v-1.375c.6.297 1.553.557 2.23.599v-1.615c-1.193-.462-2.24-.911-2.24-2.198 0-1.168 1.073-1.718 2.24-1.833v-.797h.713v.776c.795.034 1.514.194 2.156.479l-.49 1.219a5.634 5.634 0 0 0-1.666-.406v1.536c1.266.487 2.276.93 2.276 2.11 0 1.243-1.032 1.818-2.276 1.932z" fill="#fff"/><defs><filter id="a" x="0" y="0" width="100" height="100" filterUnits="userSpaceOnUse" color-interpolation-filters="sRGB"><feFlood flood-opacity="0" result="BackgroundImageFix"/><feColorMatrix in="SourceAlpha" values="0 0 0 0 0 0 0 0 0 0 0 0 0 0 0 0 0 0 127 0" result="hardAlpha"/><feOffset dy="5"/><feGaussianBlur stdDeviation="15"/><feColorMatrix values="0 0 0 0 0 0 0 0 0 0 0 0 0 0 0 0 0 0 0.05 0"/><feBlend in2="BackgroundImageFix" result="effect1_dropShadow_1_362"/><feBlend in="SourceGraphic" in2="effect1_dropShadow_1_362" result="shape"/></filter></defs></svg>
